!!!OTL: WILLST DU NICHTS VOM FREIEN HOEREN
!!!ARE: Europa, Mitteleuropa, Deutschland
!!!SCT: Z0312
!!!YEM: Copyright 1995, estate of Helmut Schaffrath.
**kern
*ICvox
*Ivox
*M3/2
*k[]
*a:
{1a
2ccn
=1
1b
2dd
=2
1ccn
2dd
=3
1ee
2a}
=4
{1ccn
2b
=5
1a
2ccn
=6
1b
2ee
=7
1.b}
=8
{1a
2ccn
=9
1b
2dd
=10
1ccn
2dd
=11
1ee
2a}
=12
{1ccn
2b
=13
1a
2ccn
=14
1b
2ee
=15
1.b}
=16
{1ccn
2dd
=17
1ee
2ccn
=18
1ffn
2ee
=19
1.dd}
=20
{1ccn
2ee
=21
1b
2ee
=22
1ccn
2b
=23
1.a}
==
!!!AGN: Lyrisches Lied, Romanze, Liebes -, Ehestands - Lied
!!!ONB: ESAC (Essen Associative Code) Database: ZUCCAL
!!!AMT: simple triple
!!!AIN: vox
!!!EED: Helmut Schaffrath
!!!EEV: 1.0
*-
